X:9391
T:Le Fil - bourree
C:Gilles Chabenat
N:abc transcription Simon Wascher
N:if you find an error in this transcription please inform simon.wascher@chello.at
M:3/8
L:1/16
K:Gm
df-fg-gc|d2=efed|Bc-cB-BA|B2cBAG|
df-fg-gc|d2=efed|Bc-cB-BA|B2cBAG:|
|:BGD2cA|E2dB=E2|cB-BA-AG|^F2G2A2|
BGD2cA|E2dB=E2|cB-BA-AG|^F4GA:|
